images/next.svg

<svg enable-background="new 0 0 489.6 489.6" height="512" viewBox="0 0 489.6 489.6" width="512" xmlns="http://www.w3.org/2000/svg"><g fill="#eceff1"><path d="m244.8 489.6c135 0 244.8-109.8 244.8-244.8s-109.8-244.8-244.8-244.8-244.8 109.8-244.8 244.8 109.8 244.8 244.8 244.8zm0-469.8c124.1 0 225 100.9 225 225s-100.9 225-225 225-225-100.9-225-225 100.9-225 225-225z"/><path d="m210 326.1c1.9 1.9 4.5 2.9 7 2.9s5.1-1 7-2.9l74.3-74.3c1.9-1.9 2.9-4.4 2.9-7s-1-5.1-2.9-7l-74.3-74.3c-3.9-3.9-10.1-3.9-14 0s-3.9 10.1 0 14l67.3 67.3-67.3 67.3c-3.8 3.9-3.8 10.2 0 14z"/></g></svg>

<?xml version="1.0"?>
<svg xmlns="http://www.w3.org/2000/svg" xmlns:xlink="http://www.w3.org/1999/xlink" version="1.1" id="Layer_1" x="0px" y="0px" viewBox="0 0 489.6 489.6" style="enable-background:new 0 0 489.6 489.6;" xml:space="preserve" width="512px" height="512px" class=""><g><g>
	<g>
		<path style="fill:#ECEFF1" d="M244.8,489.6c135,0,244.8-109.8,244.8-244.8S379.8,0,244.8,0S0,109.8,0,244.8    S109.8,489.6,244.8,489.6z M244.8,19.8c124.1,0,225,100.9,225,225s-100.9,225-225,225s-225-100.9-225-225S120.7,19.8,244.8,19.8z" data-original="#2C2F33" class="active-path" data-old_color="#eceff1"/>
		<path style="fill:#ECEFF1" d="M210,326.1c1.9,1.9,4.5,2.9,7,2.9s5.1-1,7-2.9l74.3-74.3c1.9-1.9,2.9-4.4,2.9-7s-1-5.1-2.9-7    L224,163.5c-3.9-3.9-10.1-3.9-14,0s-3.9,10.1,0,14l67.3,67.3L210,312.1C206.2,316,206.2,322.3,210,326.1z" data-original="#3C92CA" class="" data-old_color="#eceff1"/>
	</g>
</g></g> </svg>
